X: 32438
T: Pipers Of Bamburgh, The
R: waltz
M: 3/4
K: Dmajor
D4 F2|A3 FA2|B3 AB2|A3 FE2|
D4 F2|A3 FA2|B3 AF2|E3 FE2|
D4 F2|A3 FA2|B3 AB2|A3 FE2|
D4 F2|A4 F2|E3 FE2|1 D4 A,2:|2 D4 A2||
|:d4 d2|d4 A2|B3 =cB2|B2 A4|
d4 d2|d4 A2|B3 =cB2|A6|
d4 d2|d4 A2|B3 =cB2|B2 A4|
D4 F2|A4 F2|E3FE2|1 D4 A2:|2 D6||

